arcticons-light/symbolic/apps/kate-symbolic.svg

<?xml version="1.0" encoding="UTF-8" standalone="no"?>
<svg
   viewBox="0 0 48 48"
   version="1.1"
   id="svg9"
   sodipodi:docname="kate.svg"
   xmlns:inkscape="http://www.inkscape.org/namespaces/inkscape"
   xmlns:sodipodi="http://sodipodi.sourceforge.net/DTD/sodipodi-0.dtd"
   xmlns="http://www.w3.org/2000/svg"
   xmlns:svg="http://www.w3.org/2000/svg">
  <sodipodi:namedview
     id="namedview9"
     pagecolor="#ffffff"
     bordercolor="#666666"
     borderopacity="1.0"
     inkscape:showpageshadow="2"
     inkscape:pageopacity="0.0"
     inkscape:pagecheckerboard="0"
     inkscape:deskcolor="#d1d1d1" />
  <defs
     id="defs1">
    <style
       id="style1">.a{fill:none;stroke:#000;stroke-width:2px;stroke-linecap:round;stroke-linejoin:round;}</style>
  </defs>
  <path
     style="color:#000000;fill:#000000;stroke-linecap:round;stroke-linejoin:round;-inkscape-stroke:none"
     d="M 18.337891,3.5 A 1,1 0 0 0 17.632812,3.7949219 L 7.7109375,13.765625 a 1,1 0 0 0 0.00195,1.416016 1,1 0 0 0 1.4140625,-0.0039 L 19.050781,5.2050781 A 1,1 0 0 0 19.046875,3.7910156 1,1 0 0 0 18.337891,3.5 Z"
     id="line1" />
  <path
     style="color:#000000;fill:#000000;stroke-linecap:round;stroke-linejoin:round;-inkscape-stroke:none"
     d="m 15.837891,21.927734 a 1,1 0 0 0 -1,1 1,1 0 0 0 1,1 h 7.435546 a 1,1 0 0 0 1,-1 1,1 0 0 0 -1,-1 z"
     id="line2" />
  <path
     style="color:#000000;fill:#000000;stroke-linecap:round;stroke-linejoin:round;-inkscape-stroke:none"
     d="m 24.462891,33.994141 a 1,1 0 0 0 -1,1 1,1 0 0 0 1,1 h 7.648437 a 1,1 0 0 0 1,-1 1,1 0 0 0 -1,-1 z"
     id="line3" />
  <path
     style="color:#000000;fill:#000000;stroke-linecap:round;stroke-linejoin:round;-inkscape-stroke:none"
     d="m 15.837891,33.994141 a 1,1 0 0 0 -1,1 1,1 0 0 0 1,1 h 0.779296 a 1,1 0 0 0 1,-1 1,1 0 0 0 -1,-1 z"
     id="line4" />
  <path
     style="color:#000000;fill:#000000;stroke-linecap:round;stroke-linejoin:round;-inkscape-stroke:none"
     d="m 28.791016,27.960937 a 1,1 0 0 0 -1,1 1,1 0 0 0 1,1 h 3.320312 a 1,1 0 0 0 1,-1 1,1 0 0 0 -1,-1 z"
     id="line5" />
  <path
     style="color:#000000;fill:#000000;stroke-linecap:round;stroke-linejoin:round;-inkscape-stroke:none"
     d="m 15.837891,27.960937 a 1,1 0 0 0 -1,1 1,1 0 0 0 1,1 h 3.107421 a 1,1 0 0 0 1,-1 1,1 0 0 0 -1,-1 z"
     id="line6" />
  <path
     style="color:#000000;fill:#000000;stroke-linecap:round;stroke-linejoin:round;-inkscape-stroke:none"
     d="M 38.310547,2.9648438 C 37.038189,3.0982399 35.760675,3.7993037 34.837891,5.0859375 L 16.335937,30.882812 a 1.0001,1.0001 0 0 0 -0.175781,0.433594 l -1.310547,8.691406 a 1.0001,1.0001 0 0 0 1.447266,1.03711 l 7.810547,-4.027344 a 1.0001,1.0001 0 0 0 0.355469,-0.306641 L 42.964844,10.914063 C 43.887628,9.6274287 44.141025,8.1932559 43.859375,6.9453125 43.577725,5.6973691 42.809597,4.649825 41.816406,3.9375 40.823215,3.225175 39.582905,2.8314476 38.310547,2.9648438 Z m 0.208984,1.9902343 c 0.723642,-0.075868 1.498827,0.1541231 2.13086,0.6074219 0.632032,0.4532988 1.09958,1.1125094 1.259765,1.8222656 0.160186,0.7097563 0.06107,1.4829515 -0.570312,2.3632813 L 22.978516,35.349609 17.119141,38.371094 18.101562,31.853516 36.462891,6.2519531 c 0.631379,-0.8803297 1.332998,-1.2210072 2.05664,-1.296875 z"
     id="path6" />
  <path
     style="color:#000000;fill:#000000;stroke-linecap:round;stroke-linejoin:round;-inkscape-stroke:none"
     d="m 18.341797,3.5 a 1.0001,1.0001 0 0 0 -1,1 v 7.976563 a 1.0001,1.0001 0 0 0 0,0.002 c 1.45e-4,0.550612 -0.420263,0.980365 -0.970703,0.99414 H 8.4179688 a 1.0001,1.0001 0 0 0 -1.0000001,1 v 27.033203 c 0,1.641916 1.3541786,2.994141 2.9960943,2.994141 h 27.222656 a 1.0001,1.0001 0 0 0 0.02539,0 c 1.613474,-0.04038 2.920347,-1.380162 2.919922,-2.994141 V 13.916016 a 1,1 0 0 0 -1,-1 1,1 0 0 0 -1,1 V 41.505859 C 38.582176,42.056472 38.161768,42.486224 37.611328,42.5 H 10.414063 C 9.8530265,42.5 9.4179688,42.066895 9.4179688,41.505859 V 15.472656 h 6.9785152 a 1.0001,1.0001 0 0 0 0.02539,-0.002 c 1.613474,-0.04038 2.920346,-1.380162 2.919922,-2.99414 V 5.5 l 17.515625,0.00977 a 1,1 0 0 0 1,-1 1,1 0 0 0 -1,-1 z"
     id="path7" />
  <path
     style="color:#000000;fill:#000000;stroke-linecap:round;stroke-linejoin:round;-inkscape-stroke:none"
     d="m 34.357422,8.4785156 c -1.272358,0.1333961 -2.549872,0.83446 -3.472656,2.1210934 a 1,1 0 0 0 0.228515,1.396485 1,1 0 0 0 1.396485,-0.230469 c 0.631379,-0.88033 1.331045,-1.221007 2.054687,-1.296875 0.723642,-0.07587 1.498827,0.154123 2.130859,0.607422 0.632033,0.453299 1.09958,1.112509 1.259766,1.822266 0.160186,0.709756 0.06107,1.482951 -0.570312,2.363281 a 1,1 0 0 0 0.230468,1.396484 1,1 0 0 0 1.394532,-0.230469 C 39.93255,15.141101 40.1879,13.706928 39.90625,12.458984 39.6246,11.211041 38.854519,10.163497 37.861328,9.4511719 36.868137,8.7388469 35.62978,8.3451195 34.357422,8.4785156 Z"
     id="path8" />
  <path
     style="color:#000000;fill:#000000;stroke-linecap:round;stroke-linejoin:round;-inkscape-stroke:none"
     d="m 19.808594,28.761719 c -1.272377,0.133417 -2.549875,0.834424 -3.472657,2.121093 a 1,1 0 0 0 0.230469,1.396485 1,1 0 0 0 1.394531,-0.230469 c 0.631383,-0.880361 1.33298,-1.220994 2.056641,-1.296875 0.723661,-0.07588 1.498804,0.154121 2.130859,0.607422 0.632056,0.453301 1.097613,1.112492 1.257813,1.822266 0.1602,0.709773 0.06302,1.48292 -0.568359,2.363281 a 1,1 0 0 0 0.228515,1.396484 1,1 0 0 0 1.396485,-0.230469 c 0.922781,-1.286669 1.176203,-2.72079 0.894531,-3.96875 -0.281672,-1.247959 -1.049751,-2.29549 -2.042969,-3.007812 -0.993218,-0.712322 -2.233483,-1.106073 -3.505859,-0.972656 z"
     id="path9" />
</svg>

<?xml version="1.0" encoding="UTF-8"?>
<svg id="svg26" version="1.1" viewBox="0 0 48 48" xmlns="http://www.w3.org/2000/svg">
 <defs id="defs4">
  <style id="style2">.a{fill:none;stroke:#000;stroke-width:2px;stroke-linecap:round;stroke-linejoin:round;}</style>
 </defs>
 <path id="line6" d="m18.338 3.5a1 1 0 0 0-0.70508 0.29492l-9.9219 9.9707a1 1 0 0 0 0.00195 1.416 1 1 0 0 0 1.4141-0.0039l9.9238-9.9727a1 1 0 0 0-0.003906-1.4141 1 1 0 0 0-0.70898-0.29102z" color="#000000" stroke-linecap="round" stroke-linejoin="round" style="-inkscape-stroke:none"/>
 <path id="line8" d="m15.838 21.928a1 1 0 0 0-1 1 1 1 0 0 0 1 1h7.4355a1 1 0 0 0 1-1 1 1 0 0 0-1-1z" color="#000000" stroke-linecap="round" stroke-linejoin="round" style="-inkscape-stroke:none"/>
 <path id="line10" d="m24.463 33.994a1 1 0 0 0-1 1 1 1 0 0 0 1 1h7.6484a1 1 0 0 0 1-1 1 1 0 0 0-1-1z" color="#000000" stroke-linecap="round" stroke-linejoin="round" style="-inkscape-stroke:none"/>
 <path id="line12" d="m15.838 33.994a1 1 0 0 0-1 1 1 1 0 0 0 1 1h0.7793a1 1 0 0 0 1-1 1 1 0 0 0-1-1z" color="#000000" stroke-linecap="round" stroke-linejoin="round" style="-inkscape-stroke:none"/>
 <path id="line14" d="m28.791 27.961a1 1 0 0 0-1 1 1 1 0 0 0 1 1h3.3203a1 1 0 0 0 1-1 1 1 0 0 0-1-1z" color="#000000" stroke-linecap="round" stroke-linejoin="round" style="-inkscape-stroke:none"/>
 <path id="line16" d="m15.838 27.961a1 1 0 0 0-1 1 1 1 0 0 0 1 1h3.1074a1 1 0 0 0 1-1 1 1 0 0 0-1-1z" color="#000000" stroke-linecap="round" stroke-linejoin="round" style="-inkscape-stroke:none"/>
 <path id="path18" d="m38.311 2.9648c-1.2724 0.1334-2.5499 0.83446-3.4727 2.1211l-18.502 25.797a1.0001 1.0001 0 0 0-0.17578 0.43359l-1.3105 8.6914a1.0001 1.0001 0 0 0 1.4473 1.0371l7.8105-4.0273a1.0001 1.0001 0 0 0 0.35547-0.30664l18.502-25.797c0.92278-1.2866 1.1762-2.7208 0.89453-3.9688s-1.0498-2.2955-2.043-3.0078-2.2335-1.1061-3.5059-0.97266zm0.20898 1.9902c0.72364-0.075868 1.4988 0.15412 2.1309 0.60742 0.63203 0.4533 1.0996 1.1125 1.2598 1.8223 0.16019 0.70976 0.06107 1.483-0.57031 2.3633l-18.361 25.602-5.8594 3.0215 0.98242-6.5176 18.361-25.602c0.63138-0.88033 1.333-1.221 2.0566-1.2969z" color="#000000" stroke-linecap="round" stroke-linejoin="round" style="-inkscape-stroke:none"/>
 <path id="path20" d="m18.342 3.5a1.0001 1.0001 0 0 0-1 1v7.9766a1.0001 1.0001 0 0 0 0 2e-3c1.45e-4 0.55061-0.42026 0.98036-0.9707 0.99414h-7.9531a1.0001 1.0001 0 0 0-1 1v27.033c0 1.6419 1.3542 2.9941 2.9961 2.9941h27.223a1.0001 1.0001 0 0 0 0.02539 0c1.6135-0.04038 2.9203-1.3802 2.9199-2.9941v-27.59a1 1 0 0 0-1-1 1 1 0 0 0-1 1v27.59c1.45e-4 0.55061-0.42026 0.98036-0.9707 0.99414h-27.197c-0.56104 0-0.99609-0.4331-0.99609-0.99414v-26.033h6.9785a1.0001 1.0001 0 0 0 0.02539-2e-3c1.6135-0.04038 2.9203-1.3802 2.9199-2.9941v-6.9765l17.516 0.00977a1 1 0 0 0 1-1 1 1 0 0 0-1-1z" color="#000000" stroke-linecap="round" stroke-linejoin="round" style="-inkscape-stroke:none"/>
 <path id="path22" d="m34.357 8.4785c-1.2724 0.1334-2.5499 0.83446-3.4727 2.1211a1 1 0 0 0 0.22852 1.3965 1 1 0 0 0 1.3965-0.23047c0.63138-0.88033 1.331-1.221 2.0547-1.2969 0.72364-0.07587 1.4988 0.15412 2.1309 0.60742 0.63203 0.4533 1.0996 1.1125 1.2598 1.8223 0.16019 0.70976 0.06107 1.483-0.57031 2.3633a1 1 0 0 0 0.23047 1.3965 1 1 0 0 0 1.3945-0.23047c0.92278-1.2866 1.1781-2.7208 0.89648-3.9688-0.28165-1.2479-1.0517-2.2955-2.0449-3.0078-0.99319-0.71232-2.2315-1.1061-3.5039-0.97266z" color="#000000" stroke-linecap="round" stroke-linejoin="round" style="-inkscape-stroke:none"/>
 <path id="path24" d="m19.809 28.762c-1.2724 0.13342-2.5499 0.83442-3.4727 2.1211a1 1 0 0 0 0.23047 1.3965 1 1 0 0 0 1.3945-0.23047c0.63138-0.88036 1.333-1.221 2.0566-1.2969 0.72366-0.07588 1.4988 0.15412 2.1309 0.60742 0.63206 0.4533 1.0976 1.1125 1.2578 1.8223 0.1602 0.70977 0.06302 1.4829-0.56836 2.3633a1 1 0 0 0 0.22852 1.3965 1 1 0 0 0 1.3965-0.23047c0.92278-1.2867 1.1762-2.7208 0.89453-3.9688-0.28167-1.248-1.0498-2.2955-2.043-3.0078s-2.2335-1.1061-3.5059-0.97266z" color="#000000" stroke-linecap="round" stroke-linejoin="round" style="-inkscape-stroke:none"/>
</svg>
